; generated by PrusaSlicer 2.5.1+win64 on 2023-05-04 at 09:41:57 UTC


;
;
; 

; external perimeters extrusion width = 0.45mm
; perimeters extrusion width = 0.45mm
; infill extrusion width = 0.45mm
; solid infill extrusion width = 0.45mm
; top infill extrusion width = 0.40mm
; first layer extrusion width = 0.42mm

M73 P0 R73
M73 Q0 S73
M201 X1000 Y1000 Z200 E5000 ; sets maximum accelerations, mm/sec^2
M203 X200 Y200 Z12 E120 ; sets maximum feedrates, mm / sec
M204 P1250 R1250 T1250 ; sets acceleration (P, T) and retract acceleration (R), mm/sec^2
M205 X8.00 Y8.00 Z0.40 E4.50 ; sets the jerk limits, mm/sec
M205 S0 T0 ; sets the minimum extruding and travel feed rate, mm/sec
M107
;TYPE:Custom
M862.3 P "MK3S" ; printer model check
M862.1 P0.4 ; nozzle diameter check
M115 U3.11.0 ; tell printer latest fw version
G90 ; use absolute coordinates
M83 ; extruder relative mode
M104 S215 ; set extruder temp
M140 S60 ; set bed temp
M190 S60 ; wait for bed temp
M109 S215 ; wait for extruder temp
G28 W ; home all without mesh bed level
G80 ; mesh bed leveling

G1 Z0.2 F720
G1 Y-3 F1000 ; go outside print area
G92 E0
G1 X60 E9 F1000 ; intro line
G1 X100 E12.5 F1000 ; intro line

G92 E0
M221 S100

; Don't change E values below. Excessive value can damage the printer.

G21 ; set units to millimeters
G90 ; use absolute coordinates
M83 ; use relative distances for extrusion
M900 K0.05 ; Filament gcode LA 1.5
M900 K30 ; Filament gcode LA 1.0
M107
;LAYER_CHANGE
;Z:0.2
;HEIGHT:0.2
;BEFORE_LAYER_CHANGE
G92 E0.0
;0.2


G1 E-.8 F2100
G1 Z.4 F6300
;AFTER_LAYER_CHANGE
;0.2
G1 X116.769 Y66.139
G1 Z.2
G1 E.8 F2100
M204 S400
;TYPE:Skirt/Brim
;WIDTH:0.42
G1 F720
G1 X117.656 Y64.862 E.04874
G1 X119.413 Y63.105 E.07792
G1 X120.978 Y62.099 E.05834
G1 X122.508 Y61.823 E.04874
G1 X126.593 Y61.823 E.12809
G1 X128.412 Y62.218 E.05834
G1 X129.689 Y63.105 E.04874
G1 X131.446 Y64.862 E.07792
G1 X132.452 Y66.427 E.05834
G1 X132.728 Y67.957 E.04874
G1 X132.728 Y142.043 E2.32289
G1 X132.332 Y143.861 E.05834
G1 X131.446 Y145.138 E.04874
G1 X129.689 Y146.895 E.07792
G1 X128.123 Y147.901 E.05834
G1 X126.593 Y148.177 E.04874
G1 X122.508 Y148.177 E.12809
G1 X120.69 Y147.782 E.05834
G1 X119.413 Y146.895 E.04874
G1 X117.656 Y145.138 E.07792
G1 X116.65 Y143.573 E.05834
G1 X116.374 Y142.043 E.04874
G1 X116.374 Y67.957 E2.32289
G1 X116.756 Y66.198 E.05646
M204 S800
;WIPE_START
G1 F5040
G1 X117.656 Y64.862 E-.63737
G1 X117.875 Y64.643 E-.12263
;WIPE_END
G1 E-.04 F2100
G1 Z.6 F6300
G1 X121.489 Y68.171
G1 Z.2
G1 E.8 F2100
M204 S400
G1 F720
G1 X121.787 Y67.697 E.01755
G1 X122.272 Y67.212 E.02151
G1 X122.879 Y66.873 E.02179
G1 X123.426 Y66.749 E.01759
G1 X125.72 Y66.753 E.07193
G1 X126.162 Y66.85 E.0142
G1 X126.61 Y67.058 E.01547
G1 X127.3 Y67.683 E.0292
G1 X127.612 Y68.171 E.01818
G1 X127.802 Y68.84 E.02179
G1 X127.802 Y141.16 E2.26754
G1 X127.612 Y141.829 E.02179
M73 P0 R72
M73 Q0 S72
G1 X127.314 Y142.303 E.01755
G1 X126.829 Y142.788 E.02151
G1 X126.223 Y143.127 E.02179
G1 X125.677 Y143.251 E.01755
G1 X123.391 Y143.251 E.07167
G1 X122.722 Y143.062 E.02179
G1 X122.248 Y142.764 E.01755
G1 X121.792 Y142.308 E.02022
G1 X121.596 Y142.043 E.01034
G1 X121.3 Y141.163 E.02911
G1 X121.3 Y68.84 E2.26764
G1 X121.473 Y68.229 E.01991
M204 S800
G1 X121.834 Y68.335 F6300
M204 S400
G1 F720
G1 X122.068 Y67.95 E.01415
G1 X122.519 Y67.499 E.01999
G1 X123.035 Y67.218 E.01842
G1 X123.446 Y67.126 E.0132
G1 X125.697 Y67.13 E.07059
G1 X126.056 Y67.213 E.01155
G1 X126.422 Y67.385 E.01268
G1 X127.027 Y67.943 E.0258
G1 X127.259 Y68.305 E.01347
G1 X127.425 Y68.868 E.01841
G1 X127.425 Y141.132 E2.26578
G1 X127.259 Y141.696 E.01842
G1 X127.034 Y142.05 E.01318
G1 X126.583 Y142.501 E.01999
G1 X126.067 Y142.782 E.01842
G1 X125.657 Y142.874 E.01318
M73 P1 R72
M73 Q1 S72
G1 X123.419 Y142.874 E.07016
G1 X122.855 Y142.708 E.01842
G1 X122.501 Y142.483 E.01318
G1 X122.069 Y142.052 E.01911
G1 X121.917 Y141.844 E.00808
G1 X121.677 Y141.132 E.02354
G1 X121.677 Y68.868 E2.26579
G1 X121.817 Y68.393 E.01553
M204 S800
G1 X122.176 Y68.504 F6300
M204 S400
G1 F720
G1 X122.195 Y68.442 E.00203
G1 X122.349 Y68.202 E.00892
G1 X122.765 Y67.786 E.01845
G1 X123.187 Y67.564 E.01496
G1 X123.465 Y67.503 E.00893
G1 X125.675 Y67.507 E.06929
G1 X125.913 Y67.562 E.00766
G1 X126.233 Y67.713 E.0111
G1 X126.752 Y68.201 E.02233
G1 X126.907 Y68.442 E.00898
G1 X127.048 Y68.898 E.01495
G1 X127.048 Y141.102 E2.26393
G1 X126.907 Y141.558 E.01496
G1 X126.753 Y141.798 E.00892
G1 X126.337 Y142.214 E.01845
G1 X125.915 Y142.436 E.01496
G1 X125.637 Y142.497 E.00892
G1 X123.448 Y142.497 E.06862
G1 X122.993 Y142.356 E.01496
G1 X122.753 Y142.202 E.00892
G1 X122.347 Y141.796 E.018
G1 X122.239 Y141.646 E.00579
G1 X122.054 Y141.101 E.01806
G1 X122.054 Y68.898 E2.26389
G1 X122.158 Y68.561 E.01105
M204 S800
G1 X122.514 Y68.678 F6300
M204 S400
G1 F720
G1 X122.544 Y68.585 E.00306
G1 X122.629 Y68.456 E.00484
G1 X123.009 Y68.075 E.01687
G1 X123.332 Y67.912 E.01136
G1 X123.483 Y67.88 E.00484
G1 X125.652 Y67.884 E.06801
G1 X125.77 Y67.911 E.00377
G1 X126.043 Y68.04 E.00947
G1 X126.474 Y68.457 E.0188
G1 X126.558 Y68.585 E.00479
G1 X126.671 Y68.929 E.01136
G1 X126.671 Y141.071 E2.26194
G1 X126.558 Y141.415 E.01136
G1 X126.473 Y141.544 E.00484
G1 X126.093 Y141.925 E.01687
G1 X125.769 Y142.088 E.01136
G1 X125.618 Y142.12 E.00484
G1 X123.48 Y142.12 E.06704
G1 X123.136 Y142.007 E.01136
G1 X123.007 Y141.922 E.00484
G1 X122.626 Y141.542 E.01686
G1 X122.563 Y141.452 E.00345
G1 X122.431 Y141.069 E.0127
G1 X122.431 Y68.929 E2.2619
G1 X122.495 Y68.735 E.00642
M204 S800
G1 X122.845 Y68.86 F6300
M204 S400
G1 F720
G1 X122.908 Y68.71 E.0051
G1 X123.251 Y68.367 E.01522
G1 X123.469 Y68.264 E.00757
G1 X125.601 Y68.257 E.06683
G1 X125.851 Y68.367 E.00856
G1 X126.194 Y68.71 E.01522
G1 X126.294 Y68.964 E.00856
G1 X126.294 Y141.036 E2.25974
G1 X126.194 Y141.29 E.00856
G1 X125.851 Y141.633 E.01522
G1 X125.601 Y141.743 E.00856
G1 X123.515 Y141.743 E.06538
G1 X123.261 Y141.643 E.00856
G1 X122.908 Y141.29 E.01566
G1 X122.808 Y141.036 E.00856
G1 X122.808 Y68.964 E2.25974
G1 X122.825 Y68.917 E.00158
M204 S800
M73 P2 R71
M73 Q2 S71
G1 X123.185 Y69.006 F6300
M204 S400
G1 F720
G1 X123.214 Y68.937 E.00235
G1 X123.488 Y68.663 E.01215
G1 X123.557 Y68.634 E.00235
G1 X125.545 Y68.634 E.06231
G1 X125.614 Y68.663 E.00235
G1 X125.888 Y68.937 E.01215
G1 X125.916 Y69.006 E.00235
G1 X125.916 Y140.994 E2.25711
G1 X125.888 Y141.063 E.00235
G1 X125.614 Y141.337 E.01215
G1 X125.545 Y141.366 E.00235
G1 X123.557 Y141.366 E.06231
G1 X123.488 Y141.337 E.00235
G1 X123.214 Y141.063 E.01215
G1 X123.185 Y140.994 E.00235
G1 X123.185 Y69.066 E2.25523
M204 S800
G1 X123.562 Y69.122 F6300
M204 S400
G1 F720
G1 X123.673 Y69.011 E.0049
G1 X125.429 Y69.011 E.05506
G1 X125.539 Y69.122 E.0049
G1 X125.539 Y140.878 E2.24986
G1 X125.429 Y140.989 E.0049
G1 X123.673 Y140.989 E.05506
G1 X123.562 Y140.878 E.0049
G1 X123.562 Y69.182 E2.24798
M204 S800
; printing object prowa.stl id:0 copy 0
;WIPE_START
G1 F5040
G1 X123.673 Y69.011 E-.08039
G1 X125.39 Y69.011 E-.67961
;WIPE_END
G1 E-.04 F2100
G1 Z.6 F6300
G1 X124.35 Y69.799
G1 Z.2
G1 E.8 F2100
M204 S400
;TYPE:Perimeter
;WIDTH:0.444381
G1 F720
G1 X124.752 Y69.799 E.0134
G1 X124.752 Y140.201 E2.35011
G1 X124.35 Y140.201 E.0134
G1 X124.35 Y69.859 E2.34811
M204 S800
G1 X125.141 Y69.41 F6300
M204 S400
;TYPE:External perimeter
;WIDTH:0.419999
G1 F720
G1 X125.141 Y140.59 E2.2318
G1 X123.961 Y140.59 E.037
M73 P3 R71
M73 Q3 S71
G1 X123.961 Y69.41 E2.2318
G1 X125.081 Y69.41 E.03512
M204 S800
G1 X125.139 Y69.81 F6300
; stop printing object prowa.stl id:0 copy 0
M106 S84.15
;LAYER_CHANGE
;Z:0.27
;HEIGHT:0.07
;BEFORE_LAYER_CHANGE
G92 E0.0
;0.27


;WIPE_START
G1 F5040
G1 X125.082 Y71.33 E-.76
;WIPE_END
G1 E-.04 F2100
G1 Z.6 F6300
;AFTER_LAYER_CHANGE
;0.27
; printing object prowa.stl id:0 copy 0
G1 X124.83 Y69.721
G1 Z.27
G1 E.8 F2100
M204 S160
;TYPE:Perimeter
;WIDTH:0.572534
G1 F1800
G1 X124.83 Y140.279 E1.1448
G1 X124.272 Y140.279 E.00905
G1 X124.272 Y69.721 E1.1448
G1 X124.77 Y69.721 E.00807
M204 S800
G1 X125.326 Y69.225 F6300
M204 S160
;TYPE:External perimeter
;WIDTH:0.449999
G1 F1200
G1 X125.326 Y140.775 E.90575
G1 X123.776 Y140.775 E.01962
M73 P3 R70
M73 Q3 S70
G1 X123.776 Y69.225 E.90575
G1 X125.266 Y69.225 E.01886
M204 S800
G1 X125.323 Y69.625 F6300
; stop printing object prowa.stl id:0 copy 0
M106 S170.85
;LAYER_CHANGE
;Z:0.34
;HEIGHT:0.07
;BEFORE_LAYER_CHANGE
G92 E0.0
;0.34


;WIPE_START
G1 F5040
G1 X125.267 Y71.145 E-.76
;WIPE_END
G1 E-.04 F2100
G1 Z.67 F6300
;AFTER_LAYER_CHANGE
;0.34
; printing object prowa.stl id:0 copy 0
G1 X124.83 Y69.721
G1 Z.34
G1 E.8 F2100
M204 S160
;TYPE:Perimeter
;WIDTH:0.572534
G1 F1800
G1 X124.83 Y140.279 E1.1448
G1 X124.272 Y140.279 E.00905
G1 X124.272 Y69.721 E1.1448
G1 X124.77 Y69.721 E.00807
M204 S800
G1 X125.326 Y69.225 F6300
M204 S160
;TYPE:External perimeter
;WIDTH:0.449999
G1 F1200
G1 X125.326 Y140.775 E.90575
G1 X123.776 Y140.775 E.01962
G1 X123.776 Y69.225 E.90575
G1 X125.266 Y69.225 E.01886
M204 S800
G1 X125.323 Y69.625 F6300
; stop printing object prowa.stl id:0 copy 0
M106 S255
;LAYER_CHANGE
;Z:0.41
;HEIGHT:0.07
;BEFORE_LAYER_CHANGE
G92 E0.0
;0.41


;WIPE_START
G1 F5040
G1 X125.267 Y71.145 E-.76
;WIPE_END
G1 E-.04 F2100
G1 Z.74 F6300
;AFTER_LAYER_CHANGE
;0.41
; printing object prowa.stl id:0 copy 0
G1 X124.83 Y69.721
G1 Z.41
G1 E.8 F2100
M204 S160
;TYPE:Perimeter
;WIDTH:0.572534
G1 F1800
G1 X124.83 Y140.279 E1.1448
G1 X124.272 Y140.279 E.00905
G1 X124.272 Y69.721 E1.1448
G1 X124.77 Y69.721 E.00807
M204 S800
G1 X125.326 Y69.225 F6300
M204 S160
;TYPE:External perimeter
;WIDTH:0.449999
G1 F1200
G1 X125.326 Y140.775 E.90575
G1 X123.776 Y140.775 E.01962
G1 X123.776 Y69.225 E.90575
G1 X125.266 Y69.225 E.01886
M204 S800
M73 P4 R70
M73 Q4 S70
G1 X125.323 Y69.625 F6300
; stop printing object prowa.stl id:0 copy 0
;LAYER_CHANGE
;Z:0.48
;HEIGHT:0.07
;BEFORE_LAYER_CHANGE
G92 E0.0
;0.48


;WIPE_START
G1 F5040
G1 X125.267 Y71.145 E-.76
;WIPE_END
G1 E-.04 F2100
G1 Z.81 F6300
;AFTER_LAYER_CHANGE
;0.48
; printing object prowa.stl id:0 copy 0
G1 X124.83 Y69.721
G1 Z.48
G1 E.8 F2100
M204 S160
;TYPE:Perimeter
;WIDTH:0.572534
G1 F1800
G1 X124.83 Y140.279 E1.1448
G1 X124.272 Y140.279 E.00905
G1 X124.272 Y69.721 E1.1448
G1 X124.77 Y69.721 E.00807
M204 S800
G1 X125.326 Y69.225 F6300
M204 S160
;TYPE:External perimeter
;WIDTH:0.449999
G1 F1200
G1 X125.326 Y140.775 E.90575
G1 X123.776 Y140.775 E.01962
G1 X123.776 Y69.225 E.90575
G1 X125.266 Y69.225 E.01886
M204 S800
G1 X125.323 Y69.625 F6300
; stop printing object prowa.stl id:0 copy 0
;LAYER_CHANGE
;Z:0.55
;HEIGHT:0.07
;BEFORE_LAYER_CHANGE
G92 E0.0
;0.55


;WIPE_START
G1 F5040
G1 X125.267 Y71.145 E-.76
;WIPE_END
G1 E-.04 F2100
G1 Z.88 F6300
;AFTER_LAYER_CHANGE
;0.55
; printing object prowa.stl id:0 copy 0
G1 X124.83 Y69.721
G1 Z.55
G1 E.8 F2100
M204 S160
;TYPE:Perimeter
;WIDTH:0.572534
G1 F1800
G1 X124.83 Y140.279 E1.1448
G1 X124.272 Y140.279 E.00905
G1 X124.272 Y69.721 E1.1448
G1 X124.77 Y69.721 E.00807
M204 S800
G1 X125.326 Y69.225 F6300
M204 S160
;TYPE:External perimeter
;WIDTH:0.449999
G1 F1200
G1 X125.326 Y140.775 E.90575
G1 X123.776 Y140.775 E.01962
G1 X123.776 Y69.225 E.90575
G1 X125.266 Y69.225 E.01886
M204 S800
G1 X125.323 Y69.625 F6300
; stop printing object prowa.stl id:0 copy 0
;LAYER_CHANGE
;Z:0.62
;HEIGHT:0.07
;BEFORE_LAYER_CHANGE
G92 E0.0
;0.62


;WIPE_START
G1 F5040
G1 X125.267 Y71.145 E-.76
;WIPE_END
G1 E-.04 F2100
G1 Z.95 F6300
;AFTER_LAYER_CHANGE
;0.62
; printing object prowa.stl id:0 copy 0
G1 X124.83 Y69.721
G1 Z.62
G1 E.8 F2100
M204 S160
;TYPE:Perimeter
;WIDTH:0.572534
G1 F1800
G1 X124.83 Y140.279 E1.1448
G1 X124.272 Y140.279 E.00905
G1 X124.272 Y69.721 E1.1448
G1 X124.77 Y69.721 E.00807
M204 S800
M73 P4 R69
M73 Q4 S69
G1 X125.326 Y69.225 F6300
M204 S160
;TYPE:External perimeter
;WIDTH:0.449999
G1 F1200
G1 X125.326 Y140.775 E.90575
G1 X123.776 Y140.775 E.01962
G1 X123.776 Y69.225 E.90575
G1 X125.266 Y69.225 E.01886
M204 S800
G1 X125.323 Y69.625 F6300
; stop printing object prowa.stl id:0 copy 0
;LAYER_CHANGE
;Z:0.69
;HEIGHT:0.07
;BEFORE_LAYER_CHANGE
G92 E0.0
;0.69


;WIPE_START
G1 F5040
G1 X125.267 Y71.145 E-.76
;WIPE_END
G1 E-.04 F2100
G1 Z1.02 F6300
;AFTER_LAYER_CHANGE
;0.69
; printing object prowa.stl id:0 copy 0
G1 X124.83 Y69.721
G1 Z.69
G1 E.8 F2100
M204 S160
;TYPE:Perimeter
;WIDTH:0.572534
G1 F1800
G1 X124.83 Y140.279 E1.1448
G1 X124.272 Y140.279 E.00905
G1 X124.272 Y69.721 E1.1448
G1 X124.77 Y69.721 E.00807
M204 S800
M73 P5 R69
M73 Q5 S69
G1 X125.326 Y69.225 F6300
M204 S160
;TYPE:External perimeter
;WIDTH:0.449999
G1 F1200
G1 X125.326 Y140.775 E.90575
G1 X123.776 Y140.775 E.01962
G1 X123.776 Y69.225 E.90575
G1 X125.266 Y69.225 E.01886
M204 S800
G1 X125.323 Y69.625 F6300
; stop printing object prowa.stl id:0 copy 0
;LAYER_CHANGE
;Z:0.76
;HEIGHT:0.07
;BEFORE_LAYER_CHANGE
G92 E0.0
;0.76


;WIPE_START
G1 F5040
G1 X125.267 Y71.145 E-.76
;WIPE_END
G1 E-.04 F2100
G1 Z1.09 F6300
;AFTER_LAYER_CHANGE
;0.76
; printing object prowa.stl id:0 copy 0
G1 X124.83 Y69.721
G1 Z.76
G1 E.8 F2100
M204 S160
;TYPE:Perimeter
;WIDTH:0.572534
G1 F1800
G1 X124.83 Y140.279 E1.1448
G1 X124.272 Y140.279 E.00905
G1 X124.272 Y69.721 E1.1448
G1 X124.77 Y69.721 E.00807
M204 S800
G1 X125.326 Y69.225 F6300
M204 S160
;TYPE:External perimeter
;WIDTH:0.449999
G1 F1200
G1 X125.326 Y140.775 E.90575
G1 X123.776 Y140.775 E.01962
G1 X123.776 Y69.225 E.90575
G1 X125.266 Y69.225 E.01886
M204 S800
G1 X125.323 Y69.625 F6300
; stop printing object prowa.stl id:0 copy 0
;LAYER_CHANGE
;Z:0.83
;HEIGHT:0.07
;BEFORE_LAYER_CHANGE
G92 E0.0
;0.83


;WIPE_START
G1 F5040
G1 X125.267 Y71.145 E-.76
;WIPE_END
G1 E-.04 F2100
G1 Z1.16 F6300
;AFTER_LAYER_CHANGE
;0.83
; printing object prowa.stl id:0 copy 0
G1 X124.83 Y69.721
G1 Z.83
G1 E.8 F2100
M204 S160
;TYPE:Perimeter
;WIDTH:0.572534
G1 F1800
G1 X124.83 Y140.279 E1.1448
G1 X124.272 Y140.279 E.00905
G1 X124.272 Y69.721 E1.1448
G1 X124.77 Y69.721 E.00807
M204 S800
G1 X125.326 Y69.225 F6300
M204 S160
;TYPE:External perimeter
;WIDTH:0.449999
G1 F1200
G1 X125.326 Y140.775 E.90575
G1 X123.776 Y140.775 E.01962
G1 X123.776 Y69.225 E.90575
G1 X125.266 Y69.225 E.01886
M204 S800
G1 X125.323 Y69.625 F6300
; stop printing object prowa.stl id:0 copy 0
;LAYER_CHANGE
;Z:0.9
;HEIGHT:0.07
;BEFORE_LAYER_CHANGE
G92 E0.0
;0.9


;WIPE_START
G1 F5040
G1 X125.267 Y71.145 E-.76
;WIPE_END
G1 E-.04 F2100
G1 Z1.23 F6300
;AFTER_LAYER_CHANGE
;0.9
; printing object prowa.stl id:0 copy 0
G1 X124.83 Y69.721
G1 Z.9
G1 E.8 F2100
M204 S160
;TYPE:Perimeter
;WIDTH:0.572534
G1 F1800
G1 X124.83 Y140.279 E1.1448
G1 X124.272 Y140.279 E.00905
G1 X124.272 Y69.721 E1.1448
G1 X124.77 Y69.721 E.00807
M204 S800
G1 X125.326 Y69.225 F6300
M204 S160
;TYPE:External perimeter
;WIDTH:0.449999
G1 F1200
G1 X125.326 Y140.775 E.90575
G1 X123.776 Y140.775 E.01962
G1 X123.776 Y69.225 E.90575
G1 X125.266 Y69.225 E.01886
M204 S800
M73 P6 R68
M73 Q6 S68
G1 X125.323 Y69.625 F6300
; stop printing object prowa.stl id:0 copy 0
;LAYER_CHANGE
;Z:0.97
;HEIGHT:0.0700001
;BEFORE_LAYER_CHANGE
G92 E0.0
;0.97


;WIPE_START
G1 F5040
G1 X125.267 Y71.145 E-.76
;WIPE_END
G1 E-.04 F2100
G1 Z1.3 F6300
;AFTER_LAYER_CHANGE
;0.97
; printing object prowa.stl id:0 copy 0
G1 X124.83 Y69.721
G1 Z.97
G1 E.8 F2100
M204 S160
;TYPE:Perimeter
;WIDTH:0.572534
G1 F1800
G1 X124.83 Y140.279 E1.1448
G1 X124.272 Y140.279 E.00905
G1 X124.272 Y69.721 E1.1448
G1 X124.77 Y69.721 E.00807
M204 S800
G1 X125.326 Y69.225 F6300
M204 S160
;TYPE:External perimeter
;WIDTH:0.449999
G1 F1200
G1 X125.326 Y140.775 E.90575
G1 X123.776 Y140.775 E.01962
G1 X123.776 Y69.225 E.90575
G1 X125.266 Y69.225 E.01886
M204 S800
G1 X125.323 Y69.625 F6300
; stop printing object prowa.stl id:0 copy 0
;LAYER_CHANGE
;Z:1.04
;HEIGHT:0.0699999
;BEFORE_LAYER_CHANGE
G92 E0.0
;1.04


;WIPE_START
G1 F5040
G1 X125.267 Y71.145 E-.76
;WIPE_END
G1 E-.04 F2100
G1 Z1.37 F6300
;AFTER_LAYER_CHANGE
;1.04
; printing object prowa.stl id:0 copy 0
G1 X124.83 Y69.721
G1 Z1.04
G1 E.8 F2100
M204 S160
;TYPE:Perimeter
;WIDTH:0.572534
G1 F1800
G1 X124.83 Y140.279 E1.1448
G1 X124.272 Y140.279 E.00905
G1 X124.272 Y69.721 E1.1448
