; generated by PrusaSlicer 2.5.1+win64 on 2023-05-04 at 09:42:19 UTC


;
;

;
;
; 

; external perimeters extrusion width = 0.40mm
; perimeters extrusion width = 0.40mm
; infill extrusion width = 0.45mm
; solid infill extrusion width = 0.45mm
; top infill extrusion width = 0.40mm
; first layer extrusion width = 0.42mm

M73 P0 R87
M201 X2500 Y2500 Z400 E5000 ; sets maximum accelerations, mm/sec^2
M203 X180 Y180 Z12 E80 ; sets maximum feedrates, mm / sec
M204 P2000 R1250 T2500 ; sets acceleration (P, T) and retract acceleration (R), mm/sec^2
M205 X8.00 Y8.00 Z2.00 E10.00 ; sets the jerk limits, mm/sec
M205 S0 T0 ; sets the minimum extruding and travel feed rate, mm/sec
M107
;TYPE:Custom
M862.3 P "MINI" ; printer model check
G90 ; use absolute coordinates
M83 ; extruder relative mode
M104 S170 ; set extruder temp for bed leveling
M140 S60 ; set bed temp
M109 R170 ; wait for bed leveling temp
M190 S60 ; wait for bed temp
M204 T1250 ; set travel acceleration
G28 ; home all without mesh bed level
G29 ; mesh bed leveling 
M204 T2500 ; restore travel acceleration
M104 S215 ; set extruder temp
G92 E0
G1 Y-2 X179 F2400
G1 Z3 F720
M109 S215 ; wait for extruder temp

; intro line
G1 X170 F1000
G1 Z0.2 F720
G1 X110 E8 F900
G1 X40 E10 F700
G92 E0

M221 S95 ; set flow
G21 ; set units to millimeters
G90 ; use absolute coordinates
M83 ; use relative distances for extrusion
M900 K0.2 ; Filament gcode LA 1.5
; ; Filament gcode LA 1.0
M107
;LAYER_CHANGE
;Z:0.2
;HEIGHT:0.2
;BEFORE_LAYER_CHANGE
G92 E0.0
;0.2


M73 P0 R86
G1 E-3.2 F4200
G1 Z.2 F720
;AFTER_LAYER_CHANGE
;0.2
G1 Z.4
G1 X121.565 Y67.693 F9000
G1 Z.2 F720
G1 E3.2 F2400
M204 P600
;TYPE:Skirt/Brim
;WIDTH:0.42
G1 F1200
G1 X122.611 Y66.817 E.04278
G1 X123.551 Y66.623 E.03008
G1 X125.551 Y66.623 E.06271
G1 X126.858 Y67.015 E.04278
G1 X127.734 Y68.06 E.04278
G1 X127.928 Y69 E.03008
G1 X127.928 Y141 E2.25751
G1 X127.536 Y142.307 E.04278
G1 X126.491 Y143.183 E.04278
G1 X125.551 Y143.377 E.03008
G1 X123.551 Y143.377 E.06271
G1 X122.244 Y142.985 E.04278
G1 X121.367 Y141.94 E.04278
G1 X121.174 Y141 E.03008
G1 X121.174 Y69 E2.25751
G1 X121.548 Y67.75 E.0409
M204 P1000
; printing object prowa.stl id:0 copy 0
G1 E-2.24 F4200
;WIPE_START
G1 F7200
G1 X122.611 Y66.817 E-.78411
G1 X122.837 Y66.77 E-.12789
;WIPE_END
G1 E-.048 F4200
G1 Z.4 F720
G1 X124.752 Y69.799 F9000
G1 Z.2 F720
G1 E3.2 F2400
M204 P600
;TYPE:Perimeter
;WIDTH:0.444381
G1 F1200
G1 X124.752 Y140.201 E2.35011
G1 X124.35 Y140.201 E.0134
G1 X124.35 Y69.799 E2.35011
G1 X124.692 Y69.799 E.0114
M204 P1000
G1 X125.141 Y69.41 F9000
M204 P600
;TYPE:External perimeter
;WIDTH:0.419999
G1 F1200
G1 X125.141 Y140.59 E2.2318
G1 X123.961 Y140.59 E.037
G1 X123.961 Y69.41 E2.2318
G1 X125.081 Y69.41 E.03512
M204 P1000
G1 X125.139 Y69.81 F9000
; stop printing object prowa.stl id:0 copy 0
M106 S84.15
;LAYER_CHANGE
;Z:0.27
;HEIGHT:0.07
;BEFORE_LAYER_CHANGE
G92 E0.0
;0.27


G1 E-2.24 F4200
;WIPE_START
G1 F7200
G1 X125.082 Y71.056 E-.912
;WIPE_END
G1 E-.048 F4200
G1 Z.4 F720
;AFTER_LAYER_CHANGE
;0.27
G1 X127.928 Y71.056 F9000
G1 Z.27 F720
G1 E3.2 F2400
;TYPE:Skirt/Brim
;WIDTH:0.42
G1 X127.928 Y141 E.82436
G1 X127.536 Y142.307 E.01608
G1 X126.491 Y143.183 E.01608
G1 X125.551 Y143.377 E.01131
G1 X123.551 Y143.377 E.02357
G1 X122.244 Y142.985 E.01608
G1 X121.367 Y141.94 E.01608
G1 X121.174 Y141 E.01131
G1 X121.174 Y69 E.84859
G1 X121.565 Y67.693 E.01608
G1 X122.611 Y66.817 E.01608
G1 X123.551 Y66.623 E.01131
G1 X125.551 Y66.623 E.02357
G1 X126.858 Y67.015 E.01608
G1 X127.734 Y68.06 E.01608
G1 X127.928 Y69 E.01131
G1 X127.928 Y70.996 E.02352
; printing object prowa.stl id:0 copy 0
G1 E-2.24 F4200
;WIPE_START
G1 F7200
G1 X127.928 Y72.641 E-.912
;WIPE_END
G1 E-.048 F4200
G1 Z.47 F720
G1 X124.966 Y69.585 F9000
G1 Z.27 F720
G1 E3.2 F2400
M204 P300
;TYPE:Perimeter
;WIDTH:0.399999
G1 F1800
G1 X124.966 Y140.415 E.79357
G1 X124.136 Y140.415 E.0093
G1 X124.136 Y69.585 E.79357
G1 X124.906 Y69.585 E.00863
M204 P1000
G1 X125.351 Y69.2 F9000
M204 P300
;TYPE:External perimeter
G1 F1200
G1 X125.351 Y140.8 E.80219
G1 X123.751 Y140.8 E.01793
M73 P1 R86
G1 X123.751 Y69.2 E.80219
G1 X125.291 Y69.2 E.01725
M204 P1000
G1 X125.348 Y69.6 F9000
G1 X124.551 Y70
M204 P300
;TYPE:Perimeter
;WIDTH:0.460092
G1 F1800
G1 X124.551 Y140 E.90669
M204 P1000
; stop printing object prowa.stl id:0 copy 0
M106 S170.85
;LAYER_CHANGE
;Z:0.34
;HEIGHT:0.07
;BEFORE_LAYER_CHANGE
G92 E0.0
;0.34


G1 E-2.24 F4200
;WIPE_START
G1 F7200
G1 X124.551 Y138.354 E-.912
;WIPE_END
G1 E-.048 F4200
G1 Z.47 F720
;AFTER_LAYER_CHANGE
;0.34
G1 X127.928 Y138.354 F9000
G1 Z.34 F720
G1 E3.2 F2400
;TYPE:Skirt/Brim
;WIDTH:0.42
G1 X127.928 Y141 E.03118
G1 X127.536 Y142.307 E.01608
G1 X126.491 Y143.183 E.01608
G1 X125.551 Y143.377 E.01131
G1 X123.551 Y143.377 E.02357
G1 X122.244 Y142.985 E.01608
G1 X121.367 Y141.94 E.01608
G1 X121.174 Y141 E.01131
G1 X121.174 Y69 E.84859
G1 X121.565 Y67.693 E.01608
G1 X122.611 Y66.817 E.01608
G1 X123.551 Y66.623 E.01131
G1 X125.551 Y66.623 E.02357
G1 X126.858 Y67.015 E.01608
G1 X127.734 Y68.06 E.01608
G1 X127.928 Y69 E.01131
G1 X127.928 Y138.294 E.8167
; printing object prowa.stl id:0 copy 0
G1 E-2.24 F4200
;WIPE_START
G1 F7200
G1 X127.928 Y139.94 E-.912
;WIPE_END
G1 E-.048 F4200
G1 Z.54 F720
G1 X124.966 Y69.585 F9000
G1 Z.34 F720
G1 E3.2 F2400
M204 P300
;TYPE:Perimeter
;WIDTH:0.399999
G1 F1800
G1 X124.966 Y140.415 E.79357
G1 X124.136 Y140.415 E.0093
G1 X124.136 Y69.585 E.79357
G1 X124.906 Y69.585 E.00863
M204 P1000
M73 P1 R85
G1 X125.351 Y69.2 F9000
M204 P300
;TYPE:External perimeter
G1 F1200
G1 X125.351 Y140.8 E.80219
G1 X123.751 Y140.8 E.01793
G1 X123.751 Y69.2 E.80219
G1 X125.291 Y69.2 E.01725
M204 P1000
G1 X125.348 Y69.6 F9000
G1 X124.551 Y70
M204 P300
;TYPE:Perimeter
;WIDTH:0.460092
G1 F1800
G1 X124.551 Y140 E.90669
M204 P1000
; stop printing object prowa.stl id:0 copy 0
M106 S255
;LAYER_CHANGE
;Z:0.41
;HEIGHT:0.07
;BEFORE_LAYER_CHANGE
G92 E0.0
;0.41


G1 E-2.24 F4200
;WIPE_START
G1 F7200
G1 X124.551 Y138.354 E-.912
;WIPE_END
G1 E-.048 F4200
G1 Z.54 F720
;AFTER_LAYER_CHANGE
;0.41
; printing object prowa.stl id:0 copy 0
G1 X124.966 Y69.585 F9000
G1 Z.41 F720
G1 E3.2 F2400
M204 P300
;WIDTH:0.399999
G1 F1800
G1 X124.966 Y140.415 E.79357
G1 X124.136 Y140.415 E.0093
G1 X124.136 Y69.585 E.79357
G1 X124.906 Y69.585 E.00863
M204 P1000
G1 X125.351 Y69.2 F9000
M204 P300
;TYPE:External perimeter
G1 F1200
G1 X125.351 Y140.8 E.80219
G1 X123.751 Y140.8 E.01793
G1 X123.751 Y69.2 E.80219
G1 X125.291 Y69.2 E.01725
M204 P1000
G1 X125.348 Y69.6 F9000
G1 X124.551 Y70
M204 P300
;TYPE:Perimeter
;WIDTH:0.460092
G1 F1800
G1 X124.551 Y140 E.90669
M204 P1000
; stop printing object prowa.stl id:0 copy 0
;LAYER_CHANGE
;Z:0.48
;HEIGHT:0.07
;BEFORE_LAYER_CHANGE
G92 E0.0
;0.48


G1 E-2.24 F4200
;WIPE_START
G1 F7200
G1 X124.551 Y138.354 E-.912
;WIPE_END
G1 E-.048 F4200
G1 Z.61 F720
;AFTER_LAYER_CHANGE
;0.48
; printing object prowa.stl id:0 copy 0
G1 X124.966 Y69.585 F9000
G1 Z.48 F720
G1 E3.2 F2400
M204 P300
;WIDTH:0.399999
G1 F1800
G1 X124.966 Y140.415 E.79357
G1 X124.136 Y140.415 E.0093
G1 X124.136 Y69.585 E.79357
G1 X124.906 Y69.585 E.00863
M204 P1000
G1 X125.351 Y69.2 F9000
M204 P300
;TYPE:External perimeter
G1 F1200
G1 X125.351 Y140.8 E.80219
G1 X123.751 Y140.8 E.01793
G1 X123.751 Y69.2 E.80219
M73 P2 R85
G1 X125.291 Y69.2 E.01725
M204 P1000
G1 X125.348 Y69.6 F9000
G1 X124.551 Y70
M204 P300
;TYPE:Perimeter
;WIDTH:0.460092
G1 F1800
G1 X124.551 Y140 E.90669
M204 P1000
; stop printing object prowa.stl id:0 copy 0
;LAYER_CHANGE
;Z:0.55
;HEIGHT:0.07
;BEFORE_LAYER_CHANGE
G92 E0.0
;0.55


G1 E-2.24 F4200
;WIPE_START
G1 F7200
G1 X124.551 Y138.354 E-.912
;WIPE_END
G1 E-.048 F4200
G1 Z.68 F720
;AFTER_LAYER_CHANGE
;0.55
; printing object prowa.stl id:0 copy 0
G1 X124.966 Y69.585 F9000
G1 Z.55 F720
G1 E3.2 F2400
M204 P300
;WIDTH:0.399999
G1 F1800
G1 X124.966 Y140.415 E.79357
G1 X124.136 Y140.415 E.0093
G1 X124.136 Y69.585 E.79357
G1 X124.906 Y69.585 E.00863
M204 P1000
G1 X125.351 Y69.2 F9000
M204 P300
;TYPE:External perimeter
G1 F1200
G1 X125.351 Y140.8 E.80219
G1 X123.751 Y140.8 E.01793
G1 X123.751 Y69.2 E.80219
G1 X125.291 Y69.2 E.01725
M204 P1000
G1 X125.348 Y69.6 F9000
G1 X124.551 Y70
M204 P300
;TYPE:Perimeter
;WIDTH:0.460092
G1 F1800
G1 X124.551 Y140 E.90669
M204 P1000
; stop printing object prowa.stl id:0 copy 0
;LAYER_CHANGE
;Z:0.62
;HEIGHT:0.07
;BEFORE_LAYER_CHANGE
G92 E0.0
;0.62


G1 E-2.24 F4200
;WIPE_START
G1 F7200
G1 X124.551 Y138.354 E-.912
;WIPE_END
G1 E-.048 F4200
G1 Z.75 F720
;AFTER_LAYER_CHANGE
;0.62
; printing object prowa.stl id:0 copy 0
G1 X124.966 Y69.585 F9000
G1 Z.62 F720
G1 E3.2 F2400
M204 P300
;WIDTH:0.399999
G1 F1800
G1 X124.966 Y140.415 E.79357
G1 X124.136 Y140.415 E.0093
M73 P2 R84
G1 X124.136 Y69.585 E.79357
G1 X124.906 Y69.585 E.00863
M204 P1000
G1 X125.351 Y69.2 F9000
M204 P300
;TYPE:External perimeter
G1 F1200
G1 X125.351 Y140.8 E.80219
G1 X123.751 Y140.8 E.01793
G1 X123.751 Y69.2 E.80219
G1 X125.291 Y69.2 E.01725
M204 P1000
G1 X125.348 Y69.6 F9000
G1 X124.551 Y70
M204 P300
;TYPE:Perimeter
;WIDTH:0.460092
G1 F1800
G1 X124.551 Y140 E.90669
M204 P1000
; stop printing object prowa.stl id:0 copy 0
;LAYER_CHANGE
;Z:0.69
;HEIGHT:0.07
;BEFORE_LAYER_CHANGE
G92 E0.0
;0.69


G1 E-2.24 F4200
;WIPE_START
G1 F7200
G1 X124.551 Y138.354 E-.912
;WIPE_END
G1 E-.048 F4200
G1 Z.82 F720
;AFTER_LAYER_CHANGE
;0.69
; printing object prowa.stl id:0 copy 0
G1 X124.966 Y69.585 F9000
G1 Z.69 F720
G1 E3.2 F2400
M204 P300
;WIDTH:0.399999
G1 F1800
G1 X124.966 Y140.415 E.79357
G1 X124.136 Y140.415 E.0093
G1 X124.136 Y69.585 E.79357
G1 X124.906 Y69.585 E.00863
M204 P1000
G1 X125.351 Y69.2 F9000
M204 P300
;TYPE:External perimeter
G1 F1200
G1 X125.351 Y140.8 E.80219
G1 X123.751 Y140.8 E.01793
G1 X123.751 Y69.2 E.80219
G1 X125.291 Y69.2 E.01725
M204 P1000
G1 X125.348 Y69.6 F9000
G1 X124.551 Y70
M204 P300
;TYPE:Perimeter
;WIDTH:0.460092
G1 F1800
G1 X124.551 Y140 E.90669
M204 P1000
; stop printing object prowa.stl id:0 copy 0
;LAYER_CHANGE
;Z:0.76
;HEIGHT:0.07
;BEFORE_LAYER_CHANGE
G92 E0.0
;0.76


G1 E-2.24 F4200
;WIPE_START
M73 P3 R84
G1 F7200
G1 X124.551 Y138.354 E-.912
;WIPE_END
G1 E-.048 F4200
G1 Z.89 F720
;AFTER_LAYER_CHANGE
;0.76
; printing object prowa.stl id:0 copy 0
G1 X124.966 Y69.585 F9000
G1 Z.76 F720
G1 E3.2 F2400
M204 P300
;WIDTH:0.399999
G1 F1800
G1 X124.966 Y140.415 E.79357
G1 X124.136 Y140.415 E.0093
G1 X124.136 Y69.585 E.79357
G1 X124.906 Y69.585 E.00863
M204 P1000
G1 X125.351 Y69.2 F9000
M204 P300
;TYPE:External perimeter
G1 F1200
G1 X125.351 Y140.8 E.80219
G1 X123.751 Y140.8 E.01793
G1 X123.751 Y69.2 E.80219
G1 X125.291 Y69.2 E.01725
M204 P1000
G1 X125.348 Y69.6 F9000
G1 E-2.24 F4200
;WIPE_START
G1 F7200
G1 X125.292 Y70.846 E-.912
;WIPE_END
G1 E-.048 F4200
G1 Z.96 F720
G1 X124.551 Y140 F9000
G1 Z.76 F720
G1 E3.2 F2400
M204 P300
;TYPE:Perimeter
;WIDTH:0.460092
G1 F1800
G1 X124.551 Y70 E.90669
M204 P1000
; stop printing object prowa.stl id:0 copy 0
;LAYER_CHANGE
;Z:0.83
;HEIGHT:0.07
;BEFORE_LAYER_CHANGE
G92 E0.0
;0.83


G1 E-2.24 F4200
;WIPE_START
G1 F7200
G1 X124.551 Y71.646 E-.912
;WIPE_END
G1 E-.048 F4200
G1 Z.96 F720
;AFTER_LAYER_CHANGE
;0.83
; printing object prowa.stl id:0 copy 0
G1 X124.966 Y69.585 F9000
G1 Z.83 F720
G1 E3.2 F2400
M204 P300
;WIDTH:0.399999
G1 F1800
G1 X124.966 Y140.415 E.79357
G1 X124.136 Y140.415 E.0093
G1 X124.136 Y69.585 E.79357
G1 X124.906 Y69.585 E.00863
M204 P1000
G1 X125.351 Y69.2 F9000
M204 P300
;TYPE:External perimeter
G1 F1200
G1 X125.351 Y140.8 E.80219
G1 X123.751 Y140.8 E.01793
G1 X123.751 Y69.2 E.80219
G1 X125.291 Y69.2 E.01725
M204 P1000
G1 X125.348 Y69.6 F9000
G1 X124.551 Y70
M204 P300
;TYPE:Perimeter
;WIDTH:0.460092
G1 F1800
G1 X124.551 Y140 E.90669
M204 P1000
; stop printing object prowa.stl id:0 copy 0
;LAYER_CHANGE
;Z:0.9
;HEIGHT:0.07
;BEFORE_LAYER_CHANGE
G92 E0.0
;0.9


G1 E-2.24 F4200
;WIPE_START
G1 F7200
G1 X124.551 Y138.354 E-.912
;WIPE_END
G1 E-.048 F4200
G1 Z1.03 F720
;AFTER_LAYER_CHANGE
;0.9
; printing object prowa.stl id:0 copy 0
G1 X124.966 Y69.585 F9000
M73 P3 R83
G1 Z.9 F720
G1 E3.2 F2400
M204 P300
;WIDTH:0.399999
G1 F1800
G1 X124.966 Y140.415 E.79357
G1 X124.136 Y140.415 E.0093
G1 X124.136 Y69.585 E.79357
G1 X124.906 Y69.585 E.00863
M204 P1000
G1 X125.351 Y69.2 F9000
M204 P300
;TYPE:External perimeter
G1 F1200
G1 X125.351 Y140.8 E.80219
G1 X123.751 Y140.8 E.01793
G1 X123.751 Y69.2 E.80219
G1 X125.291 Y69.2 E.01725
M204 P1000
G1 X125.348 Y69.6 F9000
G1 X124.551 Y70
M204 P300
;TYPE:Perimeter
;WIDTH:0.460092
G1 F1800
G1 X124.551 Y140 E.90669
M204 P1000
; stop printing object prowa.stl id:0 copy 0
;LAYER_CHANGE
;Z:0.97
;HEIGHT:0.0700001
;BEFORE_LAYER_CHANGE
G92 E0.0
;0.97


G1 E-2.24 F4200
;WIPE_START
G1 F7200
G1 X124.551 Y138.354 E-.912
;WIPE_END
G1 E-.048 F4200
G1 Z1.1 F720
;AFTER_LAYER_CHANGE
;0.97
; printing object prowa.stl id:0 copy 0
G1 X124.966 Y69.585 F9000
G1 Z.97 F720
G1 E3.2 F2400
M204 P300
;WIDTH:0.399999
G1 F1800
G1 X124.966 Y140.415 E.79357
G1 X124.136 Y140.415 E.0093
G1 X124.136 Y69.585 E.79357
G1 X124.906 Y69.585 E.00863
M204 P1000
M73 P4 R83
G1 X125.351 Y69.2 F9000
M204 P300
;TYPE:External perimeter
G1 F1200
G1 X125.351 Y140.8 E.80219
G1 X123.751 Y140.8 E.01793
G1 X123.751 Y69.2 E.80219
G1 X125.291 Y69.2 E.01725
M204 P1000
G1 X125.348 Y69.6 F9000
G1 X124.551 Y70
M204 P300
;TYPE:Perimeter
;WIDTH:0.460092
G1 F1800
G1 X124.551 Y140 E.90669
M204 P1000
; stop printing object prowa.stl id:0 copy 0
;LAYER_CHANGE
;Z:1.04
;HEIGHT:0.0699999
;BEFORE_LAYER_CHANGE
G92 E0.0
;1.04


G1 E-2.24 F4200
;WIPE_START
G1 F7200
G1 X124.551 Y138.354 E-.912
;WIPE_END
G1 E-.048 F4200
G1 Z1.17 F720
;AFTER_LAYER_CHANGE
;1.04
; printing object prowa.stl id:0 copy 0
G1 X124.966 Y69.585 F9000
G1 Z1.04 F720
G1 E3.2 F2400
M204 P300
;WIDTH:0.399999
G1 F1800
G1 X124.966 Y140.415 E.79357
G1 X124.136 Y140.415 E.0093
G1 X124.136 Y69.585 E.79357
G1 X124.906 Y69.585 E.00863
M204 P1000
G1 X125.351 Y69.2 F9000
M204 P300
;TYPE:External perimeter
G1 F1200
G1 X125.351 Y140.8 E.80219
G1 X123.751 Y140.8 E.01793
G1 X123.751 Y69.2 E.80219
G1 X125.291 Y69.2 E.01725
M204 P1000
G1 X125.348 Y69.6 F9000
G1 X124.551 Y70
M204 P300
;TYPE:Perimeter
;WIDTH:0.460092
G1 F1800
G1 X124.551 Y140 E.90669
M204 P1000
; stop printing object prowa.stl id:0 copy 0
;LAYER_CHANGE
;Z:1.11
;HEIGHT:0.0700001
;BEFORE_LAYER_CHANGE
G92 E0.0
;1.11


G1 E-2.24 F4200
;WIPE_START
G1 F7200
G1 X124.551 Y138.354 E-.912
;WIPE_END
G1 E-.048 F4200
G1 Z1.24 F720
;AFTER_LAYER_CHANGE
;1.11
; printing object prowa.stl id:0 copy 0
G1 X124.966 Y69.585 F9000
G1 Z1.11 F720
G1 E3.2 F2400
M204 P300
;WIDTH:0.399999
G1 F1800
G1 X124.966 Y140.415 E.79357
G1 X124.136 Y140.415 E.0093
G1 X124.136 Y69.585 E.79357
G1 X124.906 Y69.585 E.00863
M204 P1000
G1 X125.351 Y69.2 F9000
M204 P300
;TYPE:External perimeter
G1 F1200
G1 X125.351 Y140.8 E.80219
G1 X123.751 Y140.8 E.01793
G1 X123.751 Y69.2 E.80219
G1 X125.291 Y69.2 E.01725
M204 P1000
G1 X125.348 Y69.6 F9000
G1 X124.551 Y70
M204 P300
;TYPE:Perimeter
;WIDTH:0.460092
G1 F1800
G1 X124.551 Y140 E.90669
M204 P1000
; stop printing object prowa.stl id:0 copy 0
;LAYER_CHANGE
;Z:1.18
;HEIGHT:0.0699999
;BEFORE_LAYER_CHANGE
G92 E0.0
;1.18


G1 E-2.24 F4200
;WIPE_START
M73 P4 R82
G1 F7200
G1 X124.551 Y138.354 E-.912
;WIPE_END
G1 E-.048 F4200
G1 Z1.31 F720
;AFTER_LAYER_CHANGE
;1.18
; printing object prowa.stl id:0 copy 0
G1 X124.966 Y69.585 F9000
G1 Z1.18 F720
G1 E3.2 F2400
M204 P300
;WIDTH:0.399999
G1 F1800
G1 X124.966 Y140.415 E.79357
G1 X124.136 Y140.415 E.0093
G1 X124.136 Y69.585 E.79357
G1 X124.906 Y69.585 E.00863
M204 P1000
G1 X125.351 Y69.2 F9000
M204 P300
;TYPE:External perimeter
G1 F1200
G1 X125.351 Y140.8 E.80219
G1 X123.751 Y140.8 E.01793
G1 X123.751 Y69.2 E.80219
G1 X125.291 Y69.2 E.01725
M204 P1000
M73 P5 R82
G1 X125.348 Y69.6 F9000
G1 X124.551 Y70
M204 P300
;TYPE:Perimeter
;WIDTH:0.460092
G1 F1800
G1 X124.551 Y140 E.90669
M204 P1000
; stop printing object prowa.stl id:0 copy 0
;LAYER_CHANGE
;Z:1.25
;HEIGHT:0.0700001
;BEFORE_LAYER_CHANGE
G92 E0.0
;1.25


G1 E-2.24 F4200
;WIPE_START
G1 F7200
G1 X124.551 Y138.354 E-.912
;WIPE_END
G1 E-.048 F4200
G1 Z1.38 F720
